X: 20353
T: John Campbell's
R: strathspey
M: 4/4
K: Aminor
B|A>ba<g ^f>de>^c|d>Bg>d B>AG>B|A>ba<g ^f>de>^c|d>Bg>B A2 A>B|
A>ba<g ^f>de>^c|d>Bg>d B>AG>B|A>ba<g ^f>de>^c|d>Bg>B A2 A||
a|A>Bc<d e>d c2|d>Bg>d B>AG>B|A>Bc<d e>d c2|d>Bg>B A2 A>B|
A>Bc<d e>d c2|d>Bg>d B>AG>b|a>g^f>d e>d c2|d>Bg>B A2 A||

